packages/foundations/assets/icons/functional/images/business & payment/sepa.svg

<svg xmlns="http://www.w3.org/2000/svg" width="32" height="32" fill="none"><path fill="#1A1C1F" fill-rule="evenodd" d="M5.253 2.106c-.887.241-1.606.837-1.973 1.638-.296.647-.291.548-.292 6.767-.001 5.542.002 5.753.104 6.151.289 1.128 1.148 1.984 2.255 2.245.502.118 20.804.118 21.307-.001a3.08 3.08 0 0 0 2.278-2.332c.076-.345.083-1.03.07-6.254l-.015-5.867-.144-.393c-.266-.727-.795-1.349-1.433-1.685-.713-.374.14-.349-11.435-.345-8.624.003-10.502.016-10.722.076M26.44 4.113c.141.068.291.199.377.33l.143.216.015 5.71c.009 3.141.002 5.79-.016 5.885-.04.228-.315.537-.585.66-.205.093-.661.097-10.374.097s-10.169-.004-10.374-.097c-.27-.123-.545-.432-.585-.66-.018-.095-.025-2.744-.016-5.885l.015-5.71.142-.215a1.1 1.1 0 0 1 .374-.33L5.787 4h20.419zm-3.909 2.013c-.209.127-.44.403-.491.585-.022.078-.04.456-.04.84 0 .682.004.703.16.955.245.394.449.477 1.232.498.785.021 1.041-.038 1.308-.304.266-.267.325-.523.304-1.308-.021-.776-.1-.981-.464-1.213-.238-.15-.252-.152-1.044-.152-.688 0-.826.014-.965.099M7.6 13.089c-.32.143-.615.587-.612.923.002.336.33.795.655.918.103.039 1.806.056 5.36.055 4.942-.001 5.221-.006 5.424-.099.253-.116.367-.235.478-.5a1 1 0 0 0 0-.772c-.111-.265-.225-.384-.478-.5-.203-.093-.48-.098-5.44-.097-4.25 0-5.257.014-5.387.072m-1.8 7.982c-.567.134-1.077.559-1.34 1.116-.145.304-.167.415-.185.913-.042 1.208.289 1.732 1.875 2.969.435.339.874.713.975.831.491.574.317 1.224-.367 1.363-.392.081-.817-.002-1.378-.269-.523-.249-.761-.261-1.053-.052-.322.229-.418.85-.18 1.173.342.467 1.433.874 2.333.87 1.635-.007 2.737-1.278 2.489-2.871-.133-.858-.576-1.433-1.849-2.403-.62-.472-.984-.81-1.165-1.083-.134-.2-.119-.664.025-.808.104-.104.156-.112.574-.088.357.021.552.065.876.201.326.135.465.167.636.144.445-.06.699-.399.668-.893-.026-.402-.145-.546-.654-.795-.673-.329-1.654-.465-2.28-.318m4.597.063a1.1 1.1 0 0 0-.287.306c-.108.183-.11.266-.127 3.893-.012 2.562.001 3.791.042 3.978.071.33.319.595.622.665.312.073 3.538.064 3.758-.01.647-.217.791-1.108.245-1.509-.142-.103-.241-.112-1.6-.137l-1.45-.027-.014-1.053-.015-1.053 1.028-.001c.965-.001 1.04-.008 1.236-.12.524-.3.561-1.079.068-1.447-.14-.104-.23-.114-1.24-.129l-1.09-.016V22.72l1.294-.001c1.145-.001 1.318-.013 1.511-.101.498-.225.638-.922.269-1.33-.247-.271-.273-.275-2.236-.275-1.816 0-1.837.002-2.014.121m6.029-.023a.8.8 0 0 0-.306.331l-.12.234.001 3.842.001 3.842.119.21c.321.567 1.067.554 1.359-.023.115-.227.12-.29.12-1.633v-1.396l.867-.023c1.072-.029 1.344-.115 1.802-.573.516-.515.713-1.106.713-2.135 0-1.24-.353-2.036-1.097-2.472-.433-.254-.76-.302-2.07-.302-1.061 0-1.225.012-1.389.098m7.754.035a.9.9 0 0 0-.306.313c-.048.1-.71 1.829-1.473 3.843-.87 2.295-1.388 3.733-1.388 3.852 0 .612.75 1.042 1.311.751.286-.149.385-.324.781-1.372l.394-1.04 1.047-.014 1.047-.015.324 1.012c.338 1.052.451 1.263.765 1.425.207.107.613.109.815.004.299-.156.503-.465.503-.763 0-.174-2.479-7.641-2.589-7.796-.234-.333-.844-.432-1.231-.2m-5.092 1.651c.232.12.299.35.297 1.016-.004.917-.071.98-1.088 1.025l-.697.031V22.72h.669c.481 0 .712.022.819.077m5.715 2.31c.095.286.184.55.197.586.019.05-.085.067-.413.067-.396 0-.435-.009-.401-.093l.227-.587c.103-.271.195-.493.203-.493s.093.234.187.52"/></svg>

<svg width="32" height="32" viewBox="0 0 32 32" fill="none" xmlns="http://www.w3.org/2000/svg"><path d="M5.253 2.106 C 4.366 2.347,3.647 2.943,3.280 3.744 C 2.984 4.391,2.989 4.292,2.988 10.511 C 2.987 16.053,2.990 16.264,3.092 16.662 C 3.381 17.790,4.240 18.646,5.347 18.907 C 5.849 19.025,26.151 19.025,26.654 18.906 C 27.783 18.640,28.677 17.725,28.932 16.574 C 29.008 16.229,29.015 15.544,29.002 10.320 L 28.987 4.453 28.843 4.060 C 28.577 3.333,28.048 2.711,27.410 2.375 C 26.697 2.001,27.550 2.026,15.975 2.030 C 7.351 2.033,5.473 2.046,5.253 2.106 M26.440 4.113 C 26.581 4.181,26.731 4.312,26.817 4.443 L 26.960 4.659 26.975 10.369 C 26.984 13.510,26.977 16.159,26.959 16.254 C 26.919 16.482,26.644 16.791,26.374 16.914 C 26.169 17.007,25.713 17.011,16.000 17.011 C 6.287 17.011,5.831 17.007,5.626 16.914 C 5.356 16.791,5.081 16.482,5.041 16.254 C 5.023 16.159,5.016 13.510,5.025 10.369 L 5.040 4.659 5.182 4.444 C 5.266 4.318,5.420 4.181,5.556 4.114 L 5.787 4.000 15.996 4.000 L 26.206 4.000 26.440 4.113 M22.531 6.126 C 22.322 6.253,22.091 6.529,22.040 6.711 C 22.018 6.789,22.000 7.167,22.000 7.551 C 22.000 8.233,22.004 8.254,22.160 8.506 C 22.405 8.900,22.609 8.983,23.392 9.004 C 24.177 9.025,24.433 8.966,24.700 8.700 C 24.966 8.433,25.025 8.177,25.004 7.392 C 24.983 6.616,24.904 6.411,24.540 6.179 C 24.302 6.029,24.288 6.027,23.496 6.027 C 22.808 6.027,22.670 6.041,22.531 6.126 M7.600 13.089 C 7.280 13.232,6.985 13.676,6.988 14.012 C 6.990 14.348,7.318 14.807,7.643 14.930 C 7.746 14.969,9.449 14.986,13.003 14.985 C 17.945 14.984,18.224 14.979,18.427 14.886 C 18.680 14.770,18.794 14.651,18.905 14.386 C 19.009 14.137,19.009 13.863,18.905 13.614 C 18.794 13.349,18.680 13.230,18.427 13.114 C 18.224 13.021,17.947 13.016,12.987 13.017 C 8.737 13.017,7.730 13.031,7.600 13.089 M5.800 21.071 C 5.233 21.205,4.723 21.630,4.460 22.187 C 4.315 22.491,4.293 22.602,4.275 23.100 C 4.233 24.308,4.564 24.832,6.150 26.069 C 6.585 26.408,7.024 26.782,7.125 26.900 C 7.616 27.474,7.442 28.124,6.758 28.263 C 6.366 28.344,5.941 28.261,5.380 27.994 C 4.857 27.745,4.619 27.733,4.327 27.942 C 4.005 28.171,3.909 28.792,4.147 29.115 C 4.489 29.582,5.580 29.989,6.480 29.985 C 8.115 29.978,9.217 28.707,8.969 27.114 C 8.836 26.256,8.393 25.681,7.120 24.711 C 6.500 24.239,6.136 23.901,5.955 23.628 C 5.821 23.428,5.836 22.964,5.980 22.820 C 6.084 22.716,6.136 22.708,6.554 22.732 C 6.911 22.753,7.106 22.797,7.430 22.933 C 7.756 23.068,7.895 23.100,8.066 23.077 C 8.511 23.017,8.765 22.678,8.734 22.184 C 8.708 21.782,8.589 21.638,8.080 21.389 C 7.407 21.060,6.426 20.924,5.800 21.071 M10.397 21.134 C 10.299 21.200,10.170 21.338,10.110 21.440 C 10.002 21.623,10.000 21.706,9.983 25.333 C 9.971 27.895,9.984 29.124,10.025 29.311 C 10.096 29.641,10.344 29.906,10.647 29.976 C 10.959 30.049,14.185 30.040,14.405 29.966 C 15.052 29.749,15.196 28.858,14.650 28.457 C 14.508 28.354,14.409 28.345,13.050 28.320 L 11.600 28.293 11.586 27.240 L 11.571 26.187 12.599 26.186 C 13.564 26.185,13.639 26.178,13.835 26.066 C 14.359 25.766,14.396 24.987,13.903 24.619 C 13.763 24.515,13.673 24.505,12.663 24.490 L 11.573 24.474 11.573 23.597 L 11.573 22.720 12.867 22.719 C 14.012 22.718,14.185 22.706,14.378 22.618 C 14.876 22.393,15.016 21.696,14.647 21.288 C 14.400 21.017,14.374 21.013,12.411 21.013 C 10.595 21.013,10.574 21.015,10.397 21.134 M16.426 21.111 C 16.310 21.171,16.195 21.297,16.120 21.442 L 16.000 21.676 16.001 25.518 L 16.002 29.360 16.121 29.570 C 16.442 30.137,17.188 30.124,17.480 29.547 C 17.595 29.320,17.600 29.257,17.600 27.914 L 17.600 26.518 18.467 26.495 C 19.539 26.466,19.811 26.380,20.269 25.922 C 20.785 25.407,20.982 24.816,20.982 23.787 C 20.982 22.547,20.629 21.751,19.885 21.315 C 19.452 21.061,19.125 21.013,17.815 21.013 C 16.754 21.013,16.590 21.025,16.426 21.111 M24.180 21.146 C 24.056 21.220,23.922 21.358,23.874 21.459 C 23.826 21.559,23.164 23.288,22.401 25.302 C 21.531 27.597,21.013 29.035,21.013 29.154 C 21.013 29.766,21.763 30.196,22.324 29.905 C 22.610 29.756,22.709 29.581,23.105 28.533 L 23.499 27.493 24.546 27.479 L 25.593 27.464 25.917 28.476 C 26.255 29.528,26.368 29.739,26.682 29.901 C 26.889 30.008,27.295 30.010,27.497 29.905 C 27.796 29.749,28.000 29.440,28.000 29.142 C 28.000 28.968,25.521 21.501,25.411 21.346 C 25.177 21.013,24.567 20.914,24.180 21.146 M19.088 22.797 C 19.320 22.917,19.387 23.147,19.385 23.813 C 19.381 24.730,19.314 24.793,18.297 24.838 L 17.600 24.869 17.600 23.795 L 17.600 22.720 18.269 22.720 C 18.750 22.720,18.981 22.742,19.088 22.797 M24.803 25.107 C 24.898 25.393,24.987 25.657,25.000 25.693 C 25.019 25.743,24.915 25.760,24.587 25.760 C 24.191 25.760,24.152 25.751,24.186 25.667 C 24.207 25.615,24.309 25.351,24.413 25.080 C 24.516 24.809,24.608 24.587,24.616 24.587 C 24.624 24.587,24.709 24.821,24.803 25.107 " fill="#1A1C1F" stroke="none" fill-rule="evenodd"></path></svg>
